X:1
T:James Gibb editions
T:Psalm 97 (Becker) - Schütz
%%score [ ( 1 2 ) ( 3 4 ) ]
L:1/8
Q:1/4=98
M:3/4
K:C
V:1 treble nm="Soprano Alto"
V:2 treble 
V:3 bass nm="Tenor Bass"
V:4 bass 
V:1
"^Cornelius Becker\n(1561-1604)""^Psalm 97, SWV 195""^Heinrich Schütz\n(1585-1672)" d2 d2 f2 | %1
w: ~Der Herr, ist|
w: die In- seln|
 (e3 d c2) | d2 B2 B2 | (c3 B A2) | G2 G2 A2 | (F3 E D2) | G2 E4 | D6 :| D2 A2 B2 | (c3 _B A2) | %10
w: Kö\- * *|nig ü- ber-|all * *|das Erd- reich|sich * *|des freu-|e,|er- woh- net|im * *|
w: sol\- * *|len all- zu-|mal * *|fröh- lich sein|oh\- * *|ne Scheu-|e,|||
 _B2 A2 G2 | F6 | E2 F2 G2 | (A3 =B c2) | d2 B4 | A6 | c2 A2 _B2 | (G3 F E2) | A2 F2 G2 | E6 | %20
w: ver- borg- nen|Licht,|die Wol- ken|um * *|ihn schwe-|ben,|seins Stuhls Fes-|tung * *|ist das Ge-|richt,|
w: ||||||||||
 E2 E2 E2 | (F3 G A2) | A2 ^G4 | A4 c2 | A4 c2 | (B3 c d2) | f2 e4 | d12 |] %28
w: Ge- rech- tig-|keit * *|da- ne-|ben, da-|nach die|Welt * *|soll stre-|ben.|
w: ||||||||
V:2
 F2 F2 D2 | (E2 FG A2) | A2 ^G2 G2 | (A2 GF E2) | E2 E2 F2 | (D3 C/_B,/ A,2) | D2 ^C4 | D6 :| %8
w: ||||||||
 A,2 D2 D2 | F6 | F2 F2 E2 | F6 | ^C2 D2 E2 | F6 | F2 E4 | E6 | E2 D2 D2 | C6 | E2 D2 D2 | ^C6 | %20
w: ||||||||||||
 ^C2 C2 C2 | D4 A,2- | A,2 D4 | ^C4 F2 | F4 E2 | G4 A2- | A2 A4 | ^F12 |] %28
w: |keit ~da|* ne-|ben da|nach die|Welt soll|* stre-|ben.|
V:3
 A,2 A,2 A,2 | (C3 D E2) | F2 E2 E2 | (E3 D C2) | C2 C2 C2 | (_B,2 A,G, F,2) | _B,2 A,4 | A,6 :| %8
 F,2 F,2 G,2 | (A,3 _B, C2) | D2 C2 C2 | C6 | A,2 A,2 C2 | (C3 B, A,2) | A,2 ^G,4 | A,6 | %16
 A,2 F,2 G,2 | (E,3 F, G,2) | %18
 C2"^2. Vor ihm geht fressend Feuer her, welches die Feind anzünden,\nes blitzt und wetterleuchtet sehr, die Erd Schrecken empfindet,\nwie Wachs die Berg zerschmelzen bald vorm Herren aller Herren,\nder alles hat in seiner G'walt, den ganzen Kreis der Erden\nbeherrscht er weit und ferne.\n\n4. Das hört Zion und ist sehr froh, die Kirche aller Enden\ndie freuet sich, daß Gott also schön führt das Regimente,\ndenn du, Herr, bist der Höchst allein, der überall regieret,\nvor allen Göttern insgemein die Hoheit dir gebühret,\ndein Herrlichkeit man spüret.\n\n5. Wohl denen, die von Herzensgrund Gott lieb'n, stehn ab vom Bösen,\nder Herr ihr Seel zu aller Stund in Gnaden wird erlösen.\nDarum, ihr G'rechten, fröhlich seid, und freuet euch im Herren,\nund preiset stets sein Herrlichkeit, rühmet sie weit und ferne,\ndankt ihm von Herzen gerne." _B,2 B,2 | %19
 A,6 | A,2 A,2 A,2 | (A,3 G, F,2) | E,2 D,4 | E,4 A,2 | C4 A,2 | (D3 E F2) | D2 ^C4 | D12 |] %28
V:4
 D,2 D,2 D,2 | A,6 | D,2 E,2 E,2 | A,,6 | C,2 C,2 F,2 | (_B,,3 C, D,2) | G,,2 A,,4 | D,6 :| %8
 D,2 D,2 G,2 | F,6 | _B,,2 F,2 C,2 | F,6 | A,2 D,2 C,2 | F,6 | D,2 E,4 | A,,6 | A,,2 D,2 G,,2 | %17
 C,6 | A,,2 _B,,2 G,,2 | A,,6 | A,,2 A,,2 A,,2 | D,6 | C,2 B,,4 | A,,4 F,2 | F,4 A,2 | %25
 (G,2 F,E, D,2) | D,2 A,4 | D,12 |] %28

